src/platform/plugins/shared/custom_integrations/public/assets/language_clients/rust.svg

<svg width="131" height="128" viewBox="0 0 131 128" fill="none" xmlns="http://www.w3.org/2000/svg">
<path d="M65.5 6C33.8002 6 8 31.8124 8 63.5C8 95.1876 33.8124 121 65.5 121C97.1877 121 123 95.1876 123 63.5C123 31.8124 97.1877 6 65.5 6ZM65.4149 11.1089C66.398 11.1344 67.3323 11.5442 68.0186 12.2509C68.7049 12.9576 69.0888 13.9054 69.0884 14.892C69.0884 15.8953 68.6899 16.8576 67.9804 17.567C67.2709 18.2765 66.3087 18.6751 65.3054 18.6751C64.302 18.6751 63.3398 18.2765 62.6303 17.567C61.9209 16.8576 61.5223 15.8953 61.5223 14.892C61.5221 14.3859 61.6235 13.8848 61.8204 13.4185C62.0173 12.9523 62.3058 12.5303 62.6688 12.1775C63.0317 11.8248 63.4618 11.5484 63.9335 11.3649C64.4052 11.1813 64.9089 11.0943 65.4149 11.1089ZM74.0757 17.337C80.7169 18.5809 87.0078 21.2556 92.5113 25.1753C98.0148 29.095 102.599 34.1657 105.946 40.0353L101.482 50.1073C100.715 51.8467 101.506 53.8903 103.233 54.6688L111.821 58.4762C112.088 61.1606 112.12 63.8631 111.918 66.5532H107.138C106.664 66.5532 106.469 66.8695 106.469 67.3317V69.5213C106.469 74.6789 103.562 75.8101 101.007 76.0899C98.5744 76.3697 95.8861 75.0681 95.5455 73.5841C94.1101 65.5192 91.7259 63.8041 87.955 60.8239C92.6383 57.8558 97.5039 53.4646 97.5039 47.6014C97.5039 41.2639 93.1613 37.2741 90.2054 35.3156C86.0453 32.5787 81.4472 32.0313 80.2065 32.0313H30.82C37.6489 24.4024 46.8025 19.2378 56.8634 17.337L62.6901 23.4434C64.0038 24.818 66.1812 24.8788 67.5557 23.5529L74.0757 17.337ZM20.3101 45.3389C21.2944 45.3674 22.2287 45.7785 22.9147 46.4849C23.6006 47.1913 23.9841 48.1373 23.9837 49.122C23.9837 50.1253 23.5851 51.0875 22.8757 51.797C22.1662 52.5064 21.204 52.905 20.2007 52.905C19.1973 52.905 18.2351 52.5064 17.5256 51.797C16.8162 51.0875 16.4176 50.1253 16.4176 49.122C16.4174 48.6158 16.5187 48.1148 16.7157 47.6485C16.9126 47.1822 17.2011 46.7602 17.5641 46.4075C17.927 46.0547 18.3571 45.7784 18.8288 45.5948C19.3005 45.4113 19.8042 45.3243 20.3101 45.3389ZM110.507 45.5092C111.492 45.5377 112.426 45.9488 113.112 46.6552C113.798 47.3616 114.181 48.3076 114.181 49.2923C114.181 50.2956 113.782 51.2578 113.073 51.9673C112.363 52.6767 111.401 53.0753 110.398 53.0753C109.395 53.0753 108.432 52.6767 107.723 51.9673C107.013 51.2578 106.615 50.2956 106.615 49.2923C106.615 48.7861 106.716 48.2851 106.913 47.8188C107.11 47.3525 107.398 46.9305 107.761 46.5778C108.124 46.225 108.554 45.9487 109.026 45.7651C109.498 45.5816 110.001 45.4946 110.507 45.5092ZM27.4383 46.1174H34.0313V75.8466H20.7237C19.0802 70.0753 18.568 64.0406 19.2154 58.0748L27.3653 54.4499C29.1048 53.6714 29.8955 51.6399 29.117 49.9005L27.4383 46.1174ZM54.9537 46.4337H70.6576C71.4726 46.4337 76.3869 47.3703 76.3869 51.0561C76.3869 54.1093 72.616 55.204 69.5142 55.204H54.9415L54.9537 46.4337ZM54.9537 67.794H66.984C68.0788 67.794 72.8593 68.1102 74.3798 74.2166C74.8542 76.0899 75.9125 82.1963 76.6302 84.1548C77.3479 86.3443 80.2551 90.7234 83.357 90.7234H102.99C101.674 92.4855 100.235 94.1521 98.6838 95.7107L90.692 93.9956C88.8309 93.5941 86.9941 94.7862 86.5927 96.6473L84.6951 105.503C78.593 108.267 71.9661 109.682 65.2672 109.65C58.5683 109.619 51.955 108.142 45.8792 105.32L43.9816 96.4649C43.5802 94.6038 41.7556 93.4117 39.8944 93.8131L32.0729 95.4918C30.6214 93.9945 29.2722 92.4015 28.0344 90.7234H66.0717C66.4975 90.7234 66.7894 90.6504 66.7894 90.249V76.7954C66.7894 76.4062 66.4975 76.321 66.0717 76.321H54.9415L54.9537 67.794ZM37.4008 98.6058C38.385 98.6343 39.3194 99.0454 40.0053 99.7518C40.6913 100.458 41.0748 101.404 41.0744 102.389C41.0744 103.392 40.6758 104.354 39.9663 105.064C39.2569 105.773 38.2946 106.172 37.2913 106.172C36.288 106.172 35.3257 105.773 34.6163 105.064C33.9068 104.354 33.5083 103.392 33.5082 102.389C33.508 101.883 33.6094 101.382 33.8063 100.915C34.0032 100.449 34.2917 100.027 34.6547 99.6743C35.0177 99.3216 35.4477 99.0452 35.9194 98.8617C36.3911 98.6782 36.8948 98.5911 37.4008 98.6058ZM93.4168 98.7761C94.401 98.8046 95.3353 99.2157 96.0213 99.9221C96.7072 100.628 97.0907 101.574 97.0903 102.559C97.0903 103.562 96.6918 104.525 95.9823 105.234C95.2728 105.944 94.3106 106.342 93.3073 106.342C92.304 106.342 91.3417 105.944 90.6323 105.234C89.9228 104.525 89.5242 103.562 89.5242 102.559C89.524 102.053 89.6254 101.552 89.8223 101.086C90.0192 100.619 90.3077 100.197 90.6707 99.8446C91.0336 99.4919 91.4637 99.2155 91.9354 99.032C92.4071 98.8484 92.9108 98.7614 93.4168 98.7761Z" fill="black"/>
<path fill-rule="evenodd" clip-rule="evenodd" d="M119.584 63.5C119.584 77.8439 113.886 91.6003 103.743 101.743C93.6003 111.886 79.8439 117.584 65.5 117.584C51.1561 117.584 37.3997 111.886 27.2571 101.743C17.1144 91.6003 11.4164 77.8439 11.4164 63.5C11.4164 49.1561 17.1144 35.3997 27.2571 25.2571C37.3997 15.1144 51.1561 9.41635 65.5 9.41635C79.8439 9.41635 93.6003 15.1144 103.743 25.2571C113.886 35.3997 119.584 49.1561 119.584 63.5ZM118.566 58.277L127 63.5L118.566 68.723L125.812 75.497L116.53 78.975L122.322 87.0336L112.519 88.6332L116.639 97.6734L106.714 97.322L108.992 106.992L99.322 104.714L99.6734 114.639L90.6332 110.519L89.0336 120.322L80.975 114.53L77.497 123.812L70.723 116.566L65.5 125L60.277 116.566L53.503 123.812L50.025 114.53L41.9664 120.322L40.3668 110.519L31.3266 114.639L31.678 104.714L22.0077 106.992L24.2859 97.322L14.3611 97.6734L18.4813 88.6332L8.67764 87.0336L14.4701 78.975L5.18759 75.497L12.4343 68.723L4 63.5L12.4343 58.277L5.18759 51.503L14.4701 48.025L8.67764 39.9664L18.4813 38.3668L14.3611 29.3266L24.2859 29.678L22.0077 20.0077L31.678 22.2859L31.3266 12.3611L40.3668 16.4813L41.9664 6.67763L50.025 12.4701L53.503 3.18759L60.277 10.4343L65.5 2L70.723 10.4343L77.497 3.18759L80.975 12.4701L89.0336 6.67763L90.6332 16.4813L99.6734 12.3611L99.322 22.2859L108.992 20.0077L106.714 29.678L116.639 29.3266L112.519 38.3668L122.322 39.9664L116.53 48.025L125.812 51.503L118.566 58.277Z" fill="black" stroke="black" stroke-width="3" stroke-linecap="round" stroke-linejoin="round"/>
</svg>

<svg xmlns="http://www.w3.org/2000/svg" width="131" height="128" fill="none"><path fill="#000" d="M65.5 6C33.8 6 8 31.812 8 63.5S33.812 121 65.5 121 123 95.188 123 63.5 97.188 6 65.5 6m-.085 5.109a3.77 3.77 0 0 1 2.604 1.142 3.79 3.79 0 0 1-.039 5.316 3.783 3.783 0 1 1-2.565-6.458m8.66 6.228a46.55 46.55 0 0 1 31.871 22.698l-4.464 10.072a3.48 3.48 0 0 0 1.751 4.562l8.588 3.807c.267 2.685.299 5.387.097 8.077h-4.78c-.474 0-.669.317-.669.779v2.19c0 5.157-2.907 6.288-5.462 6.568-2.433.28-5.12-1.022-5.462-2.506-1.435-8.065-3.82-9.78-7.59-12.76 4.683-2.968 9.549-7.36 9.549-13.223 0-6.337-4.343-10.327-7.299-12.285-4.16-2.737-8.758-3.285-9.998-3.285H30.82a46.55 46.55 0 0 1 26.043-14.694l5.827 6.106a3.43 3.43 0 0 0 4.866.11zM20.31 45.339a3.783 3.783 0 1 1-.219 7.563 3.783 3.783 0 0 1 .22-7.563m90.197.17a3.783 3.783 0 1 1-.218 7.563 3.783 3.783 0 0 1 .218-7.563m-83.069.608h6.593v29.73H20.724a46.6 46.6 0 0 1-1.509-17.772l8.15-3.625c1.74-.779 2.53-2.81 1.752-4.55zm27.516.317h15.704c.815 0 5.729.936 5.729 4.622 0 3.053-3.771 4.148-6.873 4.148H54.942zm0 21.36h12.03c1.095 0 5.875.316 7.396 6.423.474 1.873 1.532 7.98 2.25 9.938.718 2.19 3.625 6.568 6.727 6.568h19.633a46.6 46.6 0 0 1-4.306 4.988l-7.992-1.715a3.456 3.456 0 0 0-4.1 2.651l-1.897 8.856a46.55 46.55 0 0 1-38.816-.183l-1.897-8.855a3.443 3.443 0 0 0-4.088-2.652l-7.821 1.679a46.6 46.6 0 0 1-4.039-4.769h38.038c.425 0 .717-.073.717-.474V76.795c0-.389-.291-.474-.717-.474h-11.13zM37.4 98.606a3.783 3.783 0 1 1-.22 7.563 3.783 3.783 0 0 1 .22-7.563m56.016.17a3.783 3.783 0 1 1-.22 7.563 3.783 3.783 0 0 1 .22-7.563"/><path fill="#000" fill-rule="evenodd" stroke="#000" stroke-linecap="round" stroke-linejoin="round" stroke-width="3" d="M119.584 63.5a54.083 54.083 0 1 1-108.165 0 54.083 54.083 0 0 1 108.165 0m-1.018-5.223L127 63.5l-8.434 5.223 7.246 6.774-9.282 3.478 5.792 8.059-9.803 1.6 4.12 9.04-9.925-.352 2.278 9.67-9.67-2.278.351 9.925-9.04-4.12-1.6 9.803-8.058-5.792-3.478 9.282-6.774-7.246L65.5 125l-5.223-8.434-6.774 7.246-3.478-9.282-8.059 5.792-1.6-9.803-9.04 4.12.352-9.925-9.67 2.278 2.278-9.67-9.925.351 4.12-9.04-9.803-1.6 5.792-8.058-9.282-3.478 7.246-6.774L4 63.5l8.434-5.223-7.246-6.774 9.282-3.478-5.792-8.059 9.803-1.6-4.12-9.04 9.925.352-2.278-9.67 9.67 2.278-.351-9.925 9.04 4.12 1.6-9.803 8.058 5.792 3.478-9.282 6.774 7.246L65.5 2l5.223 8.434 6.774-7.246 3.478 9.282 8.059-5.792 1.6 9.803 9.04-4.12-.352 9.925 9.67-2.278-2.278 9.67 9.925-.351-4.12 9.04 9.803 1.6-5.792 8.058 9.282 3.478z" clip-rule="evenodd"/></svg>
